X:148
T:Humors of Glendart #1, The
C:Joe Buchanan's Scottish Tome - Page 257.4
I:257 4
Z:Carl Allison
R:Jig
L:1/8
M:6/8
K:D
A | BAF ADD | FEF DFA | BAF ADD | FEF DFA | BAF ADD | FEF DFA | dcB AFE | FDD D2 :| 
A | def d2 B | ABA AFD | def d2 f | ede fdB | def edB | AFA ABc | dcB AFE | FDD D2 :| 

